img/icons/electronic/lamp.svg

<svg xmlns="http://www.w3.org/2000/svg" viewBox="0 0 40 48"><g data-name="Layer 2"><path d="M40 28v-8a20 20 0 00-40 0v8h19v12h-6a5 5 0 00-5 5v3h24v-3a5 5 0 00-5-5h-6V28zM30 45v1H10v-1a3 3 0 013-3h14a3 3 0 013 3zM2 20a18 18 0 0136 0v6H2z" fill="#231f20" data-name="Device / Electronic"/></g></svg>

<svg xmlns="http://www.w3.org/2000/svg" viewBox="0 0 40 48"><defs><style>.cls-1{fill:#231f20;}</style></defs><title>Lamp</title><g id="Layer_2" data-name="Layer 2"><g id="Icons"><g id="Device_Electronic" data-name="Device / Electronic"><path id="Lamp" class="cls-1" d="M40,28V20A20,20,0,0,0,0,20v8H19V40H13a5,5,0,0,0-5,5v3H32V45a5,5,0,0,0-5-5H21V28ZM30,45v1H10V45a3,3,0,0,1,3-3H27A3,3,0,0,1,30,45ZM2,20a18,18,0,0,1,36,0v6H2Z"/></g></g></g></svg>
